TileServer und Tiles/svg/9/21_4.svg

<?xml version='1.0' encoding='UTF-8' standalone='no'?>
<svg xmlns="http://www.w3.org/2000/svg" width="497pt" viewBox="0 0 497 279" xmlns:xlink="http://www.w3.org/1999/xlink" height="279pt">
 <defs style="stroke:none;" overflow="visible">
  <path id="glyph0-8" d="M 0.4375 0 L 2.125 -8.03125 L 3.84375 -8.03125 L 4.6875 -1.65625 L 4.703125 -1.65625 L 8.234375 -8.03125 L 10.078125 -8.03125 L 8.40625 0 L 7.203125 0 L 8.171875 -4.609375 C 8.265625 -4.984375 8.359375 -5.359375 8.453125 -5.734375 C 8.546875 -6.117188 8.632812 -6.472656 8.71875 -6.796875 L 8.6875 -6.796875 L 4.90625 0 L 3.875 0 L 2.953125 -6.78125 L 2.90625 -6.78125 C 2.863281 -6.5 2.804688 -6.15625 2.734375 -5.75 C 2.671875 -5.34375 2.597656 -4.953125 2.515625 -4.578125 L 1.59375 0 Z M 0.4375 0 "/>
  <path id="glyph0-7" d="M 1.046875 3.59375 L 1.59375 0.984375 L -0.21875 0.984375 L -0.015625 0 L 1.78125 0 L 0.71875 -8.046875 L 2.046875 -8.046875 L 2.515625 -4.09375 C 2.554688 -3.75 2.597656 -3.332031 2.640625 -2.84375 C 2.679688 -2.351562 2.710938 -1.914062 2.734375 -1.53125 L 2.796875 -1.53125 C 2.953125 -1.90625 3.148438 -2.328125 3.390625 -2.796875 C 3.640625 -3.265625 3.867188 -3.679688 4.078125 -4.046875 L 6.3125 -8.046875 L 7.71875 -8.046875 L 3.140625 0 L 5.03125 0 L 4.8125 0.984375 L 2.90625 0.984375 L 2.375 3.59375 Z M 1.046875 3.59375 "/>
  <path id="glyph0-6" d="M 5.140625 2.796875 L 5.734375 0 L 5.125 0 L 2.578125 -4 L 1.734375 0 L 0.421875 0 L 2.109375 -8.046875 L 3.421875 -8.046875 L 2.609375 -4.234375 L 6.34375 -8.046875 L 7.890625 -8.046875 L 3.921875 -4.078125 L 5.890625 -1.109375 L 7.234375 -1.109375 L 6.390625 2.796875 Z M 5.140625 2.796875 "/>
  <path id="glyph0-5" d="M 0.421875 0 L 2.125 -8.046875 L 3.4375 -8.046875 L 2.75 -4.6875 L 6.53125 -4.6875 L 7.25 -8.046875 L 8.5625 -8.046875 L 6.875 0 L 5.53125 0 L 6.28125 -3.59375 L 2.5 -3.59375 L 1.734375 0 Z M 0.421875 0 "/>
  <path id="glyph0-4" d="M 3.546875 0.15625 C 2.742188 0.15625 2.109375 -0.03125 1.640625 -0.40625 C 1.171875 -0.78125 0.9375 -1.363281 0.9375 -2.15625 C 0.9375 -2.351562 0.953125 -2.582031 0.984375 -2.84375 C 1.015625 -3.101562 1.050781 -3.34375 1.09375 -3.5625 L 2.046875 -8.046875 L 3.375 -8.046875 L 2.625 -4.546875 C 2.863281 -4.597656 3.117188 -4.640625 3.390625 -4.671875 C 3.671875 -4.703125 3.953125 -4.71875 4.234375 -4.71875 C 5.035156 -4.71875 5.640625 -4.535156 6.046875 -4.171875 C 6.460938 -3.804688 6.671875 -3.285156 6.671875 -2.609375 C 6.671875 -2.109375 6.554688 -1.644531 6.328125 -1.21875 C 6.109375 -0.800781 5.769531 -0.46875 5.3125 -0.21875 C 4.851562 0.03125 4.265625 0.15625 3.546875 0.15625 Z M 7.46875 0 L 9.171875 -8.046875 L 10.484375 -8.046875 L 8.78125 0 Z M 3.609375 -0.9375 C 4.234375 -0.9375 4.679688 -1.09375 4.953125 -1.40625 C 5.234375 -1.71875 5.375 -2.078125 5.375 -2.484375 C 5.375 -2.929688 5.242188 -3.234375 4.984375 -3.390625 C 4.734375 -3.554688 4.359375 -3.640625 3.859375 -3.640625 C 3.609375 -3.640625 3.359375 -3.625 3.109375 -3.59375 C 2.867188 -3.570312 2.632812 -3.539062 2.40625 -3.5 C 2.34375 -3.207031 2.296875 -2.96875 2.265625 -2.78125 C 2.242188 -2.59375 2.234375 -2.425781 2.234375 -2.28125 C 2.234375 -1.851562 2.335938 -1.519531 2.546875 -1.28125 C 2.765625 -1.050781 3.117188 -0.9375 3.609375 -0.9375 Z M 3.609375 -0.9375 "/>
  <path id="glyph0-3" d="M 5.40625 -9.09375 C 4.550781 -9.09375 3.941406 -9.257812 3.578125 -9.59375 C 3.210938 -9.925781 3.03125 -10.363281 3.03125 -10.90625 C 3.03125 -11.09375 3.050781 -11.257812 3.09375 -11.40625 L 4.25 -11.40625 C 4.21875 -11.238281 4.203125 -11.097656 4.203125 -10.984375 C 4.203125 -10.703125 4.296875 -10.472656 4.484375 -10.296875 C 4.679688 -10.117188 5.007812 -10.03125 5.46875 -10.03125 C 5.945312 -10.03125 6.335938 -10.125 6.640625 -10.3125 C 6.941406 -10.5 7.144531 -10.863281 7.25 -11.40625 L 8.5 -11.40625 C 8.375 -10.695312 8.066406 -10.132812 7.578125 -9.71875 C 7.097656 -9.300781 6.375 -9.09375 5.40625 -9.09375 Z M 2.828125 0.15625 C 2.222656 0.15625 1.738281 -0.015625 1.375 -0.359375 C 1.007812 -0.703125 0.828125 -1.195312 0.828125 -1.84375 C 0.828125 -2.070312 0.84375 -2.289062 0.875 -2.5 C 0.914062 -2.707031 0.953125 -2.921875 0.984375 -3.140625 L 2.046875 -8.046875 L 3.375 -8.046875 L 2.296875 -2.984375 C 2.203125 -2.554688 2.15625 -2.222656 2.15625 -1.984375 C 2.15625 -1.660156 2.238281 -1.40625 2.40625 -1.21875 C 2.570312 -1.03125 2.835938 -0.9375 3.203125 -0.9375 C 3.546875 -0.9375 3.914062 -1.054688 4.3125 -1.296875 C 4.707031 -1.546875 5.070312 -1.929688 5.40625 -2.453125 C 5.75 -2.984375 6.015625 -3.691406 6.203125 -4.578125 L 6.9375 -8.046875 L 8.25 -8.046875 L 6.546875 0 L 5.453125 0 L 5.625 -1.484375 L 5.546875 -1.484375 C 5.359375 -1.242188 5.132812 -0.992188 4.875 -0.734375 C 4.625 -0.484375 4.332031 -0.269531 4 -0.09375 C 3.664062 0.0703125 3.273438 0.15625 2.828125 0.15625 Z M 2.828125 0.15625 "/>
  <path id="glyph0-2" d="M 3.71875 0.125 C 2.789062 0.125 2.054688 -0.148438 1.515625 -0.703125 C 0.984375 -1.265625 0.71875 -2.019531 0.71875 -2.96875 C 0.71875 -3.59375 0.800781 -4.207031 0.96875 -4.8125 C 1.144531 -5.425781 1.398438 -5.984375 1.734375 -6.484375 C 2.066406 -6.984375 2.484375 -7.382812 2.984375 -7.6875 C 3.492188 -7.988281 4.078125 -8.140625 4.734375 -8.140625 C 5.679688 -8.140625 6.414062 -7.863281 6.9375 -7.3125 C 7.46875 -6.757812 7.734375 -6.003906 7.734375 -5.046875 C 7.734375 -4.429688 7.648438 -3.816406 7.484375 -3.203125 C 7.316406 -2.597656 7.0625 -2.046875 6.71875 -1.546875 C 6.382812 -1.046875 5.96875 -0.640625 5.46875 -0.328125 C 4.96875 -0.0234375 4.382812 0.125 3.71875 0.125 Z M 3.796875 -0.96875 C 4.273438 -0.96875 4.707031 -1.132812 5.09375 -1.46875 C 5.488281 -1.8125 5.800781 -2.296875 6.03125 -2.921875 C 6.269531 -3.554688 6.390625 -4.3125 6.390625 -5.1875 C 6.390625 -5.488281 6.335938 -5.78125 6.234375 -6.0625 C 6.128906 -6.351562 5.957031 -6.585938 5.71875 -6.765625 C 5.476562 -6.953125 5.15625 -7.046875 4.75 -7.046875 C 4.207031 -7.046875 3.734375 -6.859375 3.328125 -6.484375 C 2.921875 -6.109375 2.609375 -5.609375 2.390625 -4.984375 C 2.171875 -4.359375 2.0625 -3.671875 2.0625 -2.921875 C 2.0625 -2.304688 2.210938 -1.828125 2.515625 -1.484375 C 2.816406 -1.140625 3.242188 -0.96875 3.796875 -0.96875 Z M 3.796875 -0.96875 "/>
  <path id="glyph0-1" d="M 0.59375 0 L 2.859375 -10.703125 L 4.75 -10.703125 L 5.796875 -1.96875 L 5.84375 -1.96875 L 10.609375 -10.703125 L 12.65625 -10.703125 L 10.4375 0 L 9.09375 0 L 10.4375 -6.359375 C 10.582031 -7.003906 10.71875 -7.59375 10.84375 -8.125 C 10.96875 -8.65625 11.070312 -9.082031 11.15625 -9.40625 L 11.125 -9.40625 L 5.96875 0 L 4.90625 0 L 3.765625 -9.390625 L 3.703125 -9.390625 C 3.679688 -9.191406 3.644531 -8.921875 3.59375 -8.578125 C 3.550781 -8.242188 3.492188 -7.890625 3.421875 -7.515625 C 3.359375 -7.140625 3.289062 -6.78125 3.21875 -6.4375 L 1.859375 0 Z M 0.59375 0 "/>
  <path id="glyph0-0" d="M 1.40625 0 L 1.40625 -10.703125 L 7.578125 -10.703125 L 7.578125 0 Z M 2.171875 -0.765625 L 6.8125 -0.765625 L 6.8125 -9.9375 L 2.171875 -9.9375 Z M 2.171875 -0.765625 "/>
 </defs>
 <image width="497" xlink:href="svg/9/21_4.jpg" height="279"/>
 <g>
  <path d="M 182.550781 142.042969 L 184.816406 131.339844 L 186.707031 131.339844 L 187.753906 140.074219 L 187.800781 140.074219 L 192.566406 131.339844 L 194.613281 131.339844 L 192.394531 142.042969 L 191.050781 142.042969 L 192.394531 135.683594 C 192.539062 135.039062 192.675781 134.449219 192.800781 133.917969 C 192.925781 133.386719 193.027344 132.960938 193.113281 132.636719 L 193.082031 132.636719 L 187.925781 142.042969 L 186.863281 142.042969 L 185.722656 132.652344 L 185.660156 132.652344 C 185.636719 132.851562 185.601562 133.121094 185.550781 133.464844 C 185.507812 133.800781 185.449219 134.152344 185.378906 134.527344 C 185.316406 134.902344 185.246094 135.261719 185.175781 135.605469 L 183.816406 142.042969 Z M 182.550781 142.042969 " transform=" rotate(  340 220.576 139.042) " style="fill:none;stroke-width:2;stroke-linecap:butt;stroke-linejoin:round;stroke:rgb(100%,100%,100%);stroke-opacity:0.6;stroke-miterlimit:10;"/>
  <path d="M 198.292969 142.167969 C 197.363281 142.167969 196.628906 141.894531 196.089844 141.339844 C 195.558594 140.777344 195.292969 140.023438 195.292969 139.074219 C 195.292969 138.449219 195.375 137.835938 195.542969 137.230469 C 195.71875 136.617188 195.972656 136.058594 196.308594 135.558594 C 196.640625 135.058594 197.058594 134.660156 197.558594 134.355469 C 198.066406 134.054688 198.652344 133.902344 199.308594 133.902344 C 200.253906 133.902344 200.988281 134.179688 201.511719 134.730469 C 202.042969 135.285156 202.308594 136.039062 202.308594 136.996094 C 202.308594 137.613281 202.222656 138.226562 202.058594 138.839844 C 201.890625 139.445312 201.636719 139.996094 201.292969 140.496094 C 200.957031 140.996094 200.542969 141.402344 200.042969 141.714844 C 199.542969 142.019531 198.957031 142.167969 198.292969 142.167969 Z M 198.371094 141.074219 C 198.847656 141.074219 199.28125 140.910156 199.667969 140.574219 C 200.0625 140.230469 200.375 139.746094 200.605469 139.121094 C 200.84375 138.488281 200.964844 137.730469 200.964844 136.855469 C 200.964844 136.554688 200.910156 136.261719 200.808594 135.980469 C 200.703125 135.691406 200.53125 135.457031 200.292969 135.277344 C 200.050781 135.089844 199.730469 134.996094 199.324219 134.996094 C 198.78125 134.996094 198.308594 135.183594 197.902344 135.558594 C 197.496094 135.933594 197.183594 136.433594 196.964844 137.058594 C 196.746094 137.683594 196.636719 138.371094 196.636719 139.121094 C 196.636719 139.738281 196.785156 140.214844 197.089844 140.558594 C 197.390625 140.902344 197.816406 141.074219 198.371094 141.074219 Z M 198.371094 141.074219 " transform=" rotate(  340 220.576 139.042) " style="fill:none;stroke-width:2;stroke-linecap:butt;stroke-linejoin:round;stroke:rgb(100%,100%,100%);stroke-opacity:0.6;stroke-miterlimit:10;"/>
  <path d="M 208.425781 132.949219 C 207.570312 132.949219 206.960938 132.785156 206.597656 132.449219 C 206.230469 132.117188 206.050781 131.679688 206.050781 131.136719 C 206.050781 130.949219 206.070312 130.785156 206.113281 130.636719 L 207.269531 130.636719 C 207.238281 130.804688 207.222656 130.945312 207.222656 131.058594 C 207.222656 131.339844 207.316406 131.570312 207.503906 131.746094 C 207.699219 131.925781 208.027344 132.011719 208.488281 132.011719 C 208.964844 132.011719 209.355469 131.917969 209.660156 131.730469 C 209.960938 131.542969 210.164062 131.179688 210.269531 130.636719 L 211.519531 130.636719 C 211.394531 131.347656 211.085938 131.910156 210.597656 132.324219 C 210.117188 132.742188 209.394531 132.949219 208.425781 132.949219 Z M 205.847656 142.199219 C 205.242188 142.199219 204.757812 142.027344 204.394531 141.683594 C 204.027344 141.339844 203.847656 140.847656 203.847656 140.199219 C 203.847656 139.972656 203.863281 139.753906 203.894531 139.542969 C 203.933594 139.335938 203.972656 139.121094 204.003906 138.902344 L 205.066406 133.996094 L 206.394531 133.996094 L 205.316406 139.058594 C 205.222656 139.488281 205.175781 139.820312 205.175781 140.058594 C 205.175781 140.382812 205.257812 140.636719 205.425781 140.824219 C 205.589844 141.011719 205.855469 141.105469 206.222656 141.105469 C 206.566406 141.105469 206.933594 140.988281 207.332031 140.746094 C 207.726562 140.496094 208.089844 140.113281 208.425781 139.589844 C 208.769531 139.058594 209.035156 138.351562 209.222656 137.464844 L 209.957031 133.996094 L 211.269531 133.996094 L 209.566406 142.042969 L 208.472656 142.042969 L 208.644531 140.558594 L 208.566406 140.558594 C 208.378906 140.800781 208.152344 141.050781 207.894531 141.308594 C 207.644531 141.558594 207.351562 141.773438 207.019531 141.949219 C 206.683594 142.113281 206.292969 142.199219 205.847656 142.199219 Z M 205.847656 142.199219 " transform=" rotate(  340 220.576 139.042) " style="fill:none;stroke-width:2;stroke-linecap:butt;stroke-linejoin:round;stroke:rgb(100%,100%,100%);stroke-opacity:0.6;stroke-miterlimit:10;"/>
  <path d="M 215.25 142.199219 C 214.445312 142.199219 213.8125 142.011719 213.34375 141.636719 C 212.875 141.261719 212.640625 140.679688 212.640625 139.886719 C 212.640625 139.691406 212.65625 139.460938 212.6875 139.199219 C 212.71875 138.941406 212.753906 138.699219 212.796875 138.480469 L 213.75 133.996094 L 215.078125 133.996094 L 214.328125 137.496094 C 214.566406 137.445312 214.820312 137.402344 215.09375 137.371094 C 215.375 137.339844 215.65625 137.324219 215.9375 137.324219 C 216.738281 137.324219 217.34375 137.507812 217.75 137.871094 C 218.164062 138.238281 218.375 138.757812 218.375 139.433594 C 218.375 139.933594 218.257812 140.398438 218.03125 140.824219 C 217.8125 141.242188 217.472656 141.574219 217.015625 141.824219 C 216.554688 142.074219 215.96875 142.199219 215.25 142.199219 Z M 219.171875 142.042969 L 220.875 133.996094 L 222.1875 133.996094 L 220.484375 142.042969 Z M 215.3125 141.105469 C 215.9375 141.105469 216.382812 140.949219 216.65625 140.636719 C 216.9375 140.324219 217.078125 139.964844 217.078125 139.558594 C 217.078125 139.113281 216.945312 138.808594 216.6875 138.652344 C 216.4375 138.488281 216.0625 138.402344 215.5625 138.402344 C 215.3125 138.402344 215.0625 138.417969 214.8125 138.449219 C 214.570312 138.472656 214.335938 138.503906 214.109375 138.542969 C 214.046875 138.835938 214 139.074219 213.96875 139.261719 C 213.945312 139.449219 213.9375 139.617188 213.9375 139.761719 C 213.9375 140.191406 214.039062 140.523438 214.25 140.761719 C 214.46875 140.992188 214.820312 141.105469 215.3125 141.105469 Z M 215.3125 141.105469 " transform=" rotate(  340 220.576 139.042) " style="fill:none;stroke-width:2;stroke-linecap:butt;stroke-linejoin:round;stroke:rgb(100%,100%,100%);stroke-opacity:0.6;stroke-miterlimit:10;"/>
  <path d="M 223.046875 142.042969 L 224.75 133.996094 L 226.0625 133.996094 L 225.375 137.355469 L 229.15625 137.355469 L 229.875 133.996094 L 231.1875 133.996094 L 229.5 142.042969 L 228.15625 142.042969 L 228.90625 138.449219 L 225.125 138.449219 L 224.359375 142.042969 Z M 223.046875 142.042969 " transform=" rotate(  340 220.576 139.042) " style="fill:none;stroke-width:2;stroke-linecap:butt;stroke-linejoin:round;stroke:rgb(100%,100%,100%);stroke-opacity:0.6;stroke-miterlimit:10;"/>
  <path d="M 236.78125 144.839844 L 237.375 142.042969 L 236.765625 142.042969 L 234.21875 138.042969 L 233.375 142.042969 L 232.0625 142.042969 L 233.75 133.996094 L 235.0625 133.996094 L 234.25 137.808594 L 237.984375 133.996094 L 239.53125 133.996094 L 235.5625 137.964844 L 237.53125 140.933594 L 238.875 140.933594 L 238.03125 144.839844 Z M 236.78125 144.839844 " transform=" rotate(  340 220.576 139.042) " style="fill:none;stroke-width:2;stroke-linecap:butt;stroke-linejoin:round;stroke:rgb(100%,100%,100%);stroke-opacity:0.6;stroke-miterlimit:10;"/>
  <path d="M 240.621094 145.636719 L 241.167969 143.027344 L 239.355469 143.027344 L 239.558594 142.042969 L 241.355469 142.042969 L 240.292969 133.996094 L 241.621094 133.996094 L 242.089844 137.949219 C 242.128906 138.292969 242.171875 138.710938 242.214844 139.199219 C 242.253906 139.691406 242.285156 140.128906 242.308594 140.511719 L 242.371094 140.511719 C 242.527344 140.136719 242.722656 139.714844 242.964844 139.246094 C 243.214844 138.777344 243.441406 138.363281 243.652344 137.996094 L 245.886719 133.996094 L 247.292969 133.996094 L 242.714844 142.042969 L 244.605469 142.042969 L 244.386719 143.027344 L 242.480469 143.027344 L 241.949219 145.636719 Z M 240.621094 145.636719 " transform=" rotate(  340 220.576 139.042) " style="fill:none;stroke-width:2;stroke-linecap:butt;stroke-linejoin:round;stroke:rgb(100%,100%,100%);stroke-opacity:0.6;stroke-miterlimit:10;"/>
  <path d="M 247.015625 142.042969 L 248.703125 134.011719 L 250.421875 134.011719 L 251.265625 140.386719 L 251.28125 140.386719 L 254.8125 134.011719 L 256.65625 134.011719 L 254.984375 142.042969 L 253.78125 142.042969 L 254.75 137.433594 C 254.84375 137.058594 254.9375 136.683594 255.03125 136.308594 C 255.125 135.925781 255.210938 135.570312 255.296875 135.246094 L 255.265625 135.246094 L 251.484375 142.042969 L 250.453125 142.042969 L 249.53125 135.261719 L 249.484375 135.261719 C 249.441406 135.542969 249.382812 135.886719 249.3125 136.292969 C 249.25 136.699219 249.175781 137.089844 249.09375 137.464844 L 248.171875 142.042969 Z M 247.015625 142.042969 " transform=" rotate(  340 220.576 139.042) " style="fill:none;stroke-width:2;stroke-linecap:butt;stroke-linejoin:round;stroke:rgb(100%,100%,100%);stroke-opacity:0.6;stroke-miterlimit:10;"/>
  <g transform=" rotate(  340 220.576 139.042) " style="fill:rgb(62.745098%,49.411765%,10.980392%);fill-opacity:1;">
   <use xlink:href="#glyph0-1" y="142.041704" x="181.958795"/>
   <use xlink:href="#glyph0-2" y="142.041704" x="194.573795"/>
   <use xlink:href="#glyph0-3" y="142.041704" x="203.018795"/>
   <use xlink:href="#glyph0-4" y="142.041704" x="211.703795"/>
   <use xlink:href="#glyph0-5" y="142.041704" x="222.623795"/>
   <use xlink:href="#glyph0-6" y="142.041704" x="231.638795"/>
   <use xlink:href="#glyph0-7" y="142.041704" x="239.573795"/>
   <use xlink:href="#glyph0-8" y="142.041704" x="246.578795"/>
  </g>
 </g>
</svg>

<svg xmlns="http://www.w3.org/2000/svg" xmlns:xlink="http://www.w3.org/1999/xlink" viewBox="0 0 497 279"> <defs overflow="visible" style="stroke:none">  <path id="h" d="m.4 0 1.7-8h1.7l.9 6.3L8.2-8h1.9L8.4 0H7.2l1-4.6c0-.4.2-.8.3-1.1l.2-1.1L4.9 0H4L2.9-6.8a56.3 56.3 0 0 1-.4 2.2L1.5 0Zm0 0"/>  <path id="g" d="M1 3.6 1.6 1H-.2L0 0h1.8l-1-8H2l.5 4a49.8 49.8 0 0 1 .2 2.4h.1a17 17 0 0 1 .6-1.2A46 46 0 0 1 4-4l2.3-4h1.4L3.1 0h2l-.4 1H3l-.6 2.6Zm0 0"/>  <path id="f" d="M5.1 2.8 5.7 0h-.6L2.6-4l-.9 4H.4l1.7-8h1.3l-.8 3.8L6.3-8H8L3.9-4 6-1.2h1.2l-.8 4Zm0 0"/>  <path id="e" d="m.4 0 1.7-8h1.3l-.6 3.3h3.7L7.3-8h1.3L6.9 0H5.5l.8-3.6H2.5L1.7 0Zm0 0"/>  <path id="d" d="M3.5.2C2.7.2 2.1 0 1.6-.4c-.4-.4-.6-1-.6-1.8a10 10 0 0 1 .1-1.4L2-8h1.3l-.7 3.5a8 8 0 0 1 1.6-.2c.8 0 1.4.2 1.8.5.5.4.7 1 .7 1.6a3 3 0 0 1-.4 1.4c-.2.4-.5.7-1 1-.3.2-1 .4-1.8.4Zm4-.2 1.7-8h1.3L8.8 0ZM3.6-1c.6 0 1 0 1.4-.3.2-.4.4-.8.4-1.1 0-.6-.2-.9-.4-1.1-.3-.1-.6-.1-1.1-.1a9.6 9.6 0 0 0-1.5.1l-.1.7v.5c-.1.4-.1.8.1 1 .4.3.7.4 1.2.4Zm0 0"/>  <path id="c" d="M5.4-9c-.8 0-1.4-.4-1.8-.7-.4-.2-.6-.7-.6-1.2v-.5h1.4l-.2.4c0 .3.1.5.3.7.2.2.5.3 1 .3.4 0 .8-.1 1.1-.3.4-.2.5-.7.7-1.1h1.1c0 .7-.3 1.3-.9 1.7-.3.4-1 .6-1.9.6ZM2.8.1c-.6.1-1-.1-1.4-.5C1-.7.8-1.2.8-1.8v-.7l.2-.6 1-5h1.4L2.3-3a5 5 0 0 0-.1 1c0 .3 0 .6.2.8.2.2.4.2.8.2.3 0 .7-.1 1.1-.3.4-.2.8-.6 1.1-1.2.3-.5.6-1.2.8-2L6.9-8h1.3L6.5 0h-1l.1-1.5a8 8 0 0 1-.8.8L4-.1c-.3.2-.7.3-1.2.3Zm0 .1"/>  <path id="b" d="M3.7.1c-1 0-1.6-.1-2.2-.8C1-1.3.7-2 .7-3L1-4.8a5.9 5.9 0 0 1 .7-1.7A4 4 0 0 1 3-7.7C3.5-8 4-8 4.7-8c1-.1 1.7 0 2.3.7.5.5.7 1.3.7 2.3 0 .6 0 1.2-.2 1.8a5.5 5.5 0 0 1-.8 1.7C6.4-1 6-.6 5.5-.3 5 0 4.4 0 3.7 0Zm.1-1c.5-.1 1-.3 1.3-.7.4-.2.7-.7.9-1.3a6.4 6.4 0 0 0 .3-2.3c.1-.3.1-.6-.1-.8a1.5 1.5 0 0 0-.5-.8c-.2-.2-.5-.2-1-.2a2 2 0 0 0-1.3.5C3-6 2.6-5.6 2.3-5a6.2 6.2 0 0 0-.1 2c-.2.8 0 1.3.3 1.6.3.4.7.4 1.3.4Zm0-.1"/>  <path id="a" d="m.6 0 2.3-10.7h1.9l1 8.7 4.8-8.7h2L10.5 0H9.1l1.3-6.4a171.5 171.5 0 0 1 .8-3L6 0H5L3.7-9.4a28.1 28.1 0 0 1-.3 1.9l-.2 1L2 0Zm0 0"/>  <path d="M1.4 0v-10.7h6.2V0Zm.8-.8h4.6v-9.1H2.2Zm0 0"/> </defs> <image xlink:href="svg/9/21_4.jpg" width="497" height="279"/> <path d="m182.6 142 2.2-10.7h2l.9 8.8 4.9-8.8h2l-2.2 10.7H191l1.4-6.3a171.4 171.4 0 0 1 .6-3l-5.1 9.3h-.9l-1.3-9.3a28.1 28.1 0 0 1-.3 1.8l-.2 1.1-1.4 6.4Zm15.7.2c-1 0-1.7-.3-2.3-.9-.4-.5-.7-1.3-.7-2.2 0-.7 0-1.3.2-1.9a5.9 5.9 0 0 1 .8-1.6 4 4 0 0 1 1.3-1.2c.4-.4 1-.5 1.7-.5 1 0 1.7.3 2.2.8.5.6.8 1.3.8 2.3 0 .6 0 1.2-.2 1.8a5.5 5.5 0 0 1-.8 1.7c-.3.5-.8.9-1.3 1.2-.5.3-1 .5-1.7.5Zm0-1.2c.6 0 1.1-.1 1.5-.4.2-.4.6-.9.9-1.6a6.4 6.4 0 0 0 .3-2c0-.4 0-.7-.2-1.1a1.5 1.5 0 0 0-.5-.5c-.3-.4-.6-.4-1-.4a2 2 0 0 0-1.3.6c-.5.3-.8.8-1.1 1.4a6.2 6.2 0 0 0-.2 2c-.1.7.1 1.2.4 1.6.3.3.7.4 1.3.4Zm10.1-8c-.8 0-1.4-.3-1.8-.7-.4-.2-.5-.6-.5-1.2v-.5h1.2v.5c-.1.2-.1.5.1.6.3.3.6.3 1.1.3s.9 0 1.2-.3c.3-.2.5-.5.6-1h1.2c-.1.5-.4 1.1-.9 1.5-.5.5-1.2.8-2.2.8Zm-2.6 9.1c-.6.1-1-.1-1.4-.4-.4-.4-.6-.9-.6-1.5v-.7l.2-.5 1-5h1.5l-1.1 5a5 5 0 0 0-.3 1c.1.5.1.7.3.9.2.1.6.2.8.2.4 0 .8-.1 1.1-.4.4-.2.8-.6 1.1-1.1.4-.6.6-1.2.8-2.1l.8-3.5h1.3l-1.7 8h-1.1l.1-1.4a8 8 0 0 1-.7.7c-.3.3-.5.5-.9.7-.3.1-.7.2-1.2.2Zm9.5.1c-1 0-1.5-.2-2-.6-.3-.3-.7-1-.7-1.6a10 10 0 0 1 .2-1.5l1-4.5h1.2l-.7 3.5a8 8 0 0 1 1.7-.2c.7 0 1.3.2 1.7.7.6.2.7.8.7 1.4a3 3 0 0 1-.4 1.4c-.2.4-.5.8-1 1-.4.3-1 .4-1.8.4Zm3.9-.2 1.7-8h1.3l-1.7 8Zm-3.9-.9c.7 0 1-.1 1.4-.5.2-.3.3-.6.3-1 0-.6-.1-.8-.3-1l-1.1-.1a9.6 9.6 0 0 0-1.6 0v1.3c0 .4 0 .7.2 1 .2.2.6.2 1.1.2Zm7.7.9 1.8-8h1.2l-.6 3.4h3.8l.7-3.4h1.3l-1.7 8h-1.3l.7-3.6h-3.8l-.7 3.6Zm13.8 2.8.6-2.8h-.6l-2.6-4-.8 4H232l1.8-8h1.2l-.7 3.8 3.7-3.8h1.5l-4 4 2.1 3h1.4l-1 3.7Zm3.8.8.6-2.6h-1.8l.2-1h1.8l-1.1-8h1.3l.5 4a49.8 49.8 0 0 1 .2 2.4 17 17 0 0 1 .7-1.2 46 46 0 0 1 .7-1.2l2.2-4h1.4l-4.6 8h2l-.4 1h-1.9l-.4 2.6Zm6.4-3.6 1.7-8h1.7l.9 6.4 3.5-6.4h1.9l-1.7 8h-1.2l1-4.6.2-1 .3-1.3-3.8 6.9h-1l-1-6.7a56.3 56.3 0 0 1-.5 2.2l-1 4.5Zm0 0" style="fill:none;stroke-width:2;stroke-linecap:butt;stroke-linejoin:round;stroke:#fff;stroke-opacity:.6;stroke-miterlimit:10" transform=" rotate(  340 220.576 139.042) "/> <g style="fill:#a07e1c;fill-opacity:1" transform=" rotate(  340 220.576 139.042) ">  <use xlink:href="#a" x="182" y="142"/>  <use xlink:href="#b" x="194.6" y="142"/>  <use xlink:href="#c" x="203" y="142"/>  <use xlink:href="#d" x="211.7" y="142"/>  <use xlink:href="#e" x="222.6" y="142"/>  <use xlink:href="#f" x="231.6" y="142"/>  <use xlink:href="#g" x="239.6" y="142"/>  <use xlink:href="#h" x="246.6" y="142"/> </g></svg>
